source/svgs/bowtie/uE953-edit-rename.svg

<svg xmlns="http://www.w3.org/2000/svg" viewBox="0 0 448 448"><path d="M224 255.002h-160v-63.002h160v63.002zm32 32.998h-224v-128h224v-32h-256v192h256v-32zm192-160v192h-96v-32h64v-128h-64v-32h96zm-128-40.864v272.778c18.118 15.66 39.785 24.086 64 24.086v32c-29.648 0-56.512-9.706-79.52-27.616-23.027 17.91-50.845 27.616-80.48 27.616v-32c23.776 0 46.022-8.15 64-23.296v-274.362c-17.987-15.145-40.237-22.342-64-22.342v-32c29.622 0 57.446 8.755 80.483 26.67 23.024-17.916 49.882-26.67 79.517-26.67v32c-24.2 0-45.87 7.472-64 23.136z"/></svg>

<svg xmlns="http://www.w3.org/2000/svg" viewBox="0 0 448 448"><path d="M224 255.002H64V192h160v63.002zM256 288H32V160h224v-32H0v192h256v-32zm192-160v192h-96v-32h64V160h-64v-32h96zM320 87.136v272.778C338.118 375.574 359.785 384 384 384v32c-29.648 0-56.512-9.706-79.52-27.616C281.453 406.294 253.635 416 224 416v-32c23.776 0 46.022-8.15 64-23.296V86.342C270.013 71.197 247.763 64 224 64V32c29.622 0 57.446 8.755 80.483 26.67C327.507 40.754 354.365 32 384 32v32c-24.2 0-45.87 7.472-64 23.136z"/></svg>
